X:1
T:Die ganze Welt ist voll des Herren Macht
T:Bernhard Klein für gem. Chor v. Friedrich Erk
T:Die ganze Welt ist voll des Herren Macht
T:CPDL   —   Creative Commons Attribution Non Commercial 3.0
T:CPDL   —   Creative Commons Attribution Non Commercial 3.0
T:CPDL   —   Creative Commons Attribution Non Commercial 3.0
T:CPDL   —   Creative Commons Attribution Non Commercial 3.0
C:Bernhard Klein
Z:CPDL   —   Creative Commons Attribution Non Commercial 3.0
%%score [ 1 2 3 4 ]
L:1/8
Q:1/4=100
M:4/4
K:Bb
V:1 treble nm="Sopran"
V:2 treble nm="Alt"
V:3 treble-8 nm="Tenor"
V:4 bass nm="Bass"
V:1
"^Mäßig geschwind" z8 | z2!f! B2 c2 d2 | e6 d2 | c2 c2 f2 e2 | d4 z4 | z2 c2 f2 e2 | d2 c2 e2 d2 | %7
w: |Die gan- ze|Welt ist|voll des Her- ren|Macht,|und al- le|En- gel jauch- zen|
 (c2 B2) (c2 d2) | e4 z2 c2 | f4 z2 B2 | e2 e2 d2 d2 | c2 z2 z4 | z2!mf! c2 fe dc | d6 z2 | %14
w: ihm, _ dem _|Herrn, dem|Herrn, und|prei- sen sei- ne|Macht.|Die gan- * ze *|Welt,|
 z2 d2 fedc | BdcB A4 | B4 cedc | B4- BdcB | A2 B2 e2 d2 | c2 A2 B2 c2 | d2 d2 d2 d2 | dc B2 z4 | %22
w: die gan- * * *||||* ze Welt ist|voll des Her- ren|Macht, und al- le|En- * gel,|
 z2 e2 e2 e2 | ed c2 z4 | z2 f2 f2 f2 | fe d2 dc B2 | ed c2 cB A2 | !^!B2 c2 z2 c2 | d2 fe d2 c2 | %29
w: und al- le|En- * gel,|und al- le|En- * gel jauch- * zen,|al- * le En- * gel|jauch- zen, und|al- le _ En- gel|
 B4 F2 c2 | d2 fe d2 c2 | !^!d8- | d6 d2 | c4 c4 | d4 c3 c | !fermata!d8 |] %36
w: jauch- zen, und|al- le _ En- gel|jauch-|* zen|ihm, dem|Herrn, ihm, dem|Herrn.|
V:2
 z8 | z2 D2 E2 F2 | E6 F2 | F2 F2 F2 F2 | F4 z4 | z4 z2 A2 | B2 F2 E2 F2 | F2 F2 F2 F2 | G4 z2 F2 | %9
w: |Die gan- ze|Welt ist|voll des Her- ren|Macht,|und|al- le En- gel|jauch- zen ihm, dem|Herrn, dem|
 F4 z2 F2 | E2 F2 F2 F2 | F2 z2 z4 | z4 z2!mf! F2 | F2 F2 F2 B2 | B8- | B2 F2 F3 E | D4 z2 F2 | %17
w: Herrn, und|prei- sen sei- ne|Macht.|Die|Welt, die gan- ze|Welt,|_ die gan- ze|Welt, die|
 D2 D2 F2 F2 | F2 F2 F2 F2 | F8- | F2 B2 B2 B2 | BA G2 z4 | z2 c2 c2 c2 | cB A2 z4 | z2 c2 c2 A2 | %25
w: gan- ze Welt ist|voll des Her- ren|Macht,|_ und al- le|En- * gel,|und al- le|En- * gel,|und al- le|
 F2 F2 G2 G2 | G2 G2 F2 F2 | !^!F2 F2 z2 A2 | B2 dc B2 A2 | F4 F2 A2 | B2 dc B2 A2 | F6 B2 | %32
w: En- gel jauch- zen,|al- le En- gel|jauch- zen, und|al- le _ En- gel|jauch- zen, und|al- le _ En- gel|jauch- zen.|
 B2 AG F2 F2 | G4 F4 | F4 F3 F | !fermata!F8 |] %36
w: jauch- zen _ ihm, dem|Herrn, dem|Herrn, ihm, dem|Herrn.|
V:3
 z2!f! F2 G2 A2 | B6 B2 | B6 B2 | A2 A2 B2 A2 | B2 Bc d2 B2 | c2 F2 z2 F2 | B2 A2 G2 F2 | %7
w: Die gan- ze|Welt ist|voll, ist|voll des Her- ren|Macht, und _ al- le|En- gel, und|al- le En- gel|
 A2 B2 A2 B2 | B4 z2 A2 | B4 z2 B2 | G2 A2 B2 B2 | A2!mf! c2 c2 c2 | c6 c2 | B2 d2"^cresc." d2 d2 | %14
w: jauch- zen ihm, dem|Herrn, dem|Herrn, und|prei- sen sei- ne|Macht. Die gan- ze|Welt ist|voll des Her- ren|
 d6 z2 | z2 d2 fedc | BdcB A4 | B2 B2 B2 B2 | c2 d2 A2 B2 | A2 c2 B2 A2 | B2 z2 z4 | z2 B2 B2 B2 | %22
w: Macht,|die gan- * * *||* ze Welt ist|voll des Her- ren|Macht, des Her- ren|Macht,|und al- le|
 BA G2 z4 | z2 c2 c2 c2 | cB A2 A2 c2 | dc B2 Bc d2 | c2 cB A2 c2 | !^!B2 A2 z4 | z4 z2 c2 | %29
w: En- * gel,|und al- le|En- * gel, al- le|En- * gel jauch- * zen,|al- le _ En- gel|jauch- zen,|und|
 d2 fe d2 c2 | !^!B2 B2 z2 f2 | d6 d2 | B6 B2 | B4 A4 | B4 A3 A | !fermata!B8 |] %36
w: al- le _ En- gel|jauch- zen, und|al- le|jauch- zen|ihm, dem|Herrn, ihm, dem|Herrn.|
V:4
 z2 F,2 G,2 A,2 | B,6 _A,2 | G,6 F,2 | F,2 E,2 D,2 C,2 | B,,4 z4 | z8 | z4 z2 B,,2 | %7
w: Die gan- ze|Welt ist|voll, ist|voll des Her- ren|Macht,||und|
 E,2 D,2 C,2 B,,2 | E,2 E,2 z2 F,2 | D,4 z2 D,2 | C,2 C,2 B,,2 D,2 | F,2!mf! A,2 A,2 A,2 | %12
w: al- le En- gel|jauch- zen dem|Herrn, und|prei- sen sei- ne|Macht. Die gan- ze|
 A,6 A,2 | B,2 F,2"^cresc." B,2 F,D, | B,,6 z2 | z4 z2 F,2 | B,2 B,,2 F,2 F,2 | G,A, B,G, D,2 D,2 | %18
w: Welt ist|voll des Her- ren _|Macht,|die|gan- ze Welt, die|gan- * ze * Welt ist|
 E,2 D,2 C,2 B,,2 | F,2 E,2 D,2 C,2 | B,,2 z2 z4 | z2 G,2 G,2 G,2 | G,F, E,2 z4 | z2 A,2 A,2 A,2 | %24
w: voll des Her- ren|Macht, des Her- ren|Macht,|und al- le|En- * gel,|und al- le|
 A,G, F,2 F,2 F,2 | B,2 B,2 G,2 G,2 | E,2 E,2 F,2 F,E, | !^!D,2 F,2 z4 | z4 z2 F,2 | %29
w: En- * gel, al- le|En- gel jauch- zen,|al- le En- gel _|jauch- zen,|und|
 B,2 DC B,2 F,2 | !^!D,2 B,,2 z2 F,2 | B,2 A,G, F,2 F,2 | G,2 F,E, D,2 D,2 | E,4 F,4 | %34
w: al- le _ En- gel|jauch- zen, und|al- le _ En- gel|jauch- zen _ ihm, dem|Herrn, dem|
 B,,4 F,3 F, | !fermata!B,,8 |] %36
w: Herrn, ihm, dem|Herrn.|

